!!!COM:	Johannes Ockeghem
!!!CDT:	~1425-1497/02/06
!!!OPR:	Missa Cuiusvis toni (on D)
!!!ONM:	1
!!!OTL:	Kyrie
!!!AGN:	Mass; Kyrie
!!!SCT:	Ock1004.1a
!!!SCA:	Ock1004.1a
!!!voices:	4
!!!voices-OPR:	4
**kern	**kern	**kern	**kern
*staff4	*staff3	*staff2	*staff1
*Ivox	*Ivox	*Ivox	*Ivox
*I"Bassus	*I"Tenor	*I"Altus	*I"Discantus
*I'B	*I'T	*I'A	*I'D
*>[A,B,C]	*>[A,B,C]	*>[A,B,C]	*>[A,B,C]
*>A	*>A	*>A	*>A
*clefF4	*clefGv2	*clefGv2	*clefG2
*k[b-]	*k[b-]	*k[b-]	*k[b-]
*M3/1	*M3/1	*M3/1	*M3/1
*met(O)	*met(O)	*met(O)	*met(O)
!!section: Kyrie I
!!!OMD: Kyrie I
=1-	=1-	=1-	=1-
0.r	0.r	1d	1d
.	.	2.d\	2.f/
.	.	4B-\	4g/
.	.	2A/	2a/
.	.	2G/	2b-\
=2	=2	=2	=2
0.r	1r	2r	2a/
.	.	2G/	1b-
.	1r	2B-\	.
.	.	2c\	2g/
.	1D	1d	1f
=3	=3	=3	=3
0.r	1.G	2e-i\	2r
.	.	2d\	1b-
.	.	2B-\	.
.	2F/	2c\	2.a/
.	1D	1d	.
.	.	.	4f/
.	.	.	2f/
=4	=4	=4	=4
0.r	2E/	2c\	2g/
.	2D/	1d	2.b-\
.	1F	.	.
.	.	.	4a/
.	.	2A/	2a/
.	1E	2.B-\	2.g/
.	.	4A/	4f/
=5	=5	=5	=5
0D	1D	2F/	2a/
.	.	2B-\	1f
.	1F	2A/	.
.	.	2B-\	2f/
2C/	2.G/	1c	2e/
2BB-/	.	.	[2g/
.	4A/	.	.
=6	=6	=6	=6
0GG	2B-\	2d\	4g/]
.	.	.	4f/
.	1G	2.B-\	4e/
.	.	.	4d/
.	.	.	2e/
.	.	4A/	.
.	2D/	4G/	1d
.	.	4F/	.
1r	1E	2.G/	.
.	.	.	2c#i/
.	.	4F/	.
=7	=7	=7	=7
0.Dl	0.Dl	0.Al	0.dl
!!LO:LB:i:g=z
=8||	=8||	=8||	=8||
*>B	*>B	*>B	*>B
*clefF4	*clefGv2	*clefGv2	*clefG2
*k[b-]	*k[b-]	*k[b-]	*k[b-]
*M2/1	*M2/1	*M2/1	*M2/1
*met(C|)	*met(C|)	*met(C|)	*met(C|)
!!section: Christe
!!!OMD: Christe
0r	0r	[0d	0a
=9	=9	=9	=9
0r	0r	0d]	0b-
=10	=10	=10	=10
0r	0r	1c	1a
.	.	1B-	[1b-
=11	=11	=11	=11
0r	0r	0d	2b-\]
.	.	.	2a/
.	.	.	1f
=12	=12	=12	=12
0r	0C	1.e-i	1.g
.	.	4d\	4f/
.	.	4c\	4e/
=13	=13	=13	=13
0r	0G	0B-	0d
=14	=14	=14	=14
0r	1F	1c	1r
.	1G	1B-	[1g
=15	=15	=15	=15
0r	1.B-	[0d	2g/]
.	.	.	2f/
.	.	.	1g
.	4A/	.	.
.	4G/	.	.
=16	=16	=16	=16
0r	1F	0d_	1a
.	1G	.	[1b-
=17	=17	=17	=17
0r	0B-	0d]	2b-\]
.	.	.	2g/
.	.	.	[1g
=18	=18	=18	=18
0r	0A	1.c	1g]
.	.	.	1f#i
.	.	2B-\	.
=19	=19	=19	=19
0G	1.B-	[0d	0g
.	2G/	.	.
=20	=20	=20	=20
1D	1A	1d]	1f
1E	1G	1B-	1g
=21	=21	=21	=21
1D	1F	0d	1a
[1GG	[1G	.	[1b-
=22	=22	=22	=22
1GG]	1G]	1e	1b-]
1FF	1A	1f	1a
=23	=23	=23	=23
0GG	1.B-	[0dl	0g
.	2G/	.	.
=24	=24	=24	=24
0Dl	0Al	0d]	0fl
!!LO:LB:i:g=z
=25||	=25||	=25||	=25||
*>C	*>C	*>C	*>C
*clefF4	*clefGv2	*clefGv2	*clefG2
*k[b-]	*k[b-]	*k[b-]	*k[b-]
*M3/1	*M3/1	*M3/1	*M3/1
*met(O)	*met(O)	*met(O)	*met(O)
!!section: Kyrie II
!!!OMD: Kyrie II
0.r	0.r	1.d	1a
.	.	.	2f/
.	.	2G/	1b-
.	.	2B-\	.
.	.	2c\	4a/
.	.	.	4g/
=26	=26	=26	=26
0.r	0.r	2d\	2f/
.	.	1c	4g/
.	.	.	2a/
.	.	.	4g/
.	.	2B-\	1g
.	.	1A	.
.	.	.	2f#i/
=27	=27	=27	=27
0.r	1G	2G/	1g
.	.	2B-\	.
.	0D	2A/	2r
.	.	1d	2f/
.	.	.	2f/
.	.	4c\	[2f/
.	.	4B-\	.
=28	=28	=28	=28
0.r	1D	2A/	4f/]
.	.	.	4d/
.	.	2B-\	2d/
.	2.C/	2.c\	2e/
.	.	.	1g
.	4D/	4B-\	.
.	2E/	2G/	.
.	2F/	2A/	2f/
=29	=29	=29	=29
1r	2G/	2B-\	2e/
.	2E/	2G/	2c/
1r	2D/	2F/	2.d/
.	2G/	2G/	.
.	.	.	4B-/
1D	4F#i/	1D	1A
.	2F#i/	.	.
.	8E/L	.	.
.	8F#i/J	.	.
=30	=30	=30	=30
0GG	2.G/	2r	2G/
.	.	2D/	2.B-/
.	4A/	.	.
.	1B-	2E-i/	.
.	.	.	4c/
.	.	2.D/	2.d/
2BB-/	2G/	.	.
.	.	4BB-/	4e/
2AA/	2F/	2C/	4f/
.	.	.	8e/L
.	.	.	8f/J
=31	=31	=31	=31
2GG/	2B-\	2D/	2g/
1C	4A/	1E	4f/
.	2G/	.	2e/
.	4F/	.	4d/
2.BB-/	2D/	2F/	1d
.	1E	2G/	.
4GG/	.	.	.
2AA/	.	2E/	2c#i/
=32	=32	=32	=32
2r	0.Dl	2.F/	0.dl
2BB-/	.	.	.
.	.	4G/	.
4GG/	.	2.B-\	.
2GG/	.	.	.
4FF/	.	4A/	.
1DDl	.	1Al	.
==	==	==	==
*-	*-	*-	*-
!!!RDF**kern: l=long note in original notation
!!!RDF**kern: i=editorial accidental
!!!RDF**kern: V=start of tuplet marker
!!!RDF**kern: Z=end of tuplet marker
!!!ENC:	Jesse Rodin 8-19-2012
!!!END:	2012/08/19/
!!!EED:	Jesse Rodin
!!!EEV:	2012/08/28/
!!!ONB:	Translated from MusicXML and edited on 2012/08/28/ by Craig Sapp
!!muse2ps: T^@{OPR}^u^@{ONM}{. }@{OTL}^C^@{COM}^i2I150v85,85,85,150Q16
